X: 20531
Q: "Moderato"
M: 6/8
L: 1/8
K: A
[|\
.c.c.c .c.c.d | e(ag) e<f-f |\
c(e>d) B(d>c) | "^<>"A6 |\
.c.c.c .c.c.d | e(ag) e<f-f |\
.c("^>"ed) .B("^>"dc) |
"^espress".c.c.c .c.c.d | e("^>"ag) e<"^>"f-f |\
.c("^>"e>d) .B("^>"d>c) | A3- "^<>"yA2.e/.e/ |\
(fe)c (ed)B | A3- "^<>"yA2e |
(fg)a (ba)g | ae2 z2e |\
("^>"f>e)c ("^>"e>d)B | A2z e3 |\
fga (b>a)b | c'a2 z("_F."b>c') |\
a3 z("_F."b>c') | a3- "^<>"ya2z |]


